icons/24x24_search _outline.svg

<svg width="24" height="24" fill="none" xmlns="http://www.w3.org/2000/svg"><path fill-rule="evenodd" clip-rule="evenodd" d="M10.474 15.955a5.488 5.488 0 0 1-5.481-5.481 5.488 5.488 0 0 1 5.481-5.481 5.488 5.488 0 0 1 5.481 5.481 5.488 5.488 0 0 1-5.481 5.481Zm10.217 3.327-4.28-4.28a7.437 7.437 0 0 0 1.537-4.528 7.474 7.474 0 1 0-7.474 7.474c1.704 0 3.27-.577 4.528-1.537l4.28 4.28a.995.995 0 0 0 1.409 0 .995.995 0 0 0 0-1.409Z" fill="#000"/></svg>

<svg xmlns="http://www.w3.org/2000/svg" width="24" height="24" viewBox="0 0 24 24">
  <path fill-rule="evenodd" d="M10.474,15.955 C7.452,15.955 4.993,13.496 4.993,10.474 C4.993,7.452 7.452,4.993 10.474,4.993 C13.496,4.993 15.955,7.452 15.955,10.474 C15.955,13.496 13.496,15.955 10.474,15.955 M20.691,19.282 L16.411,15.002 C17.371,13.744 17.948,12.178 17.948,10.474 C17.948,6.346 14.601,3 10.474,3 C6.346,3 3,6.346 3,10.474 C3,14.601 6.346,17.948 10.474,17.948 C12.178,17.948 13.744,17.371 15.002,16.411 L19.282,20.691 C19.672,21.081 20.303,21.081 20.691,20.691 C21.081,20.303 21.081,19.672 20.691,19.282"/>
</svg>
